img/real-estate/illustrations/contact.svg

<svg width="526" height="326" viewBox="0 0 526 326" fill="none" xmlns="http://www.w3.org/2000/svg">
<path d="M476.842 302.508H252.902V171.7L251.873 171.041L288.223 135.798C306.597 117.921 331.216 107.829 356.908 107.64L423.731 107.032L423.827 107.146L476.998 170.113L476.841 171.856L476.842 302.508Z" fill="#A89EC7"/>
<path d="M429.012 131.715H295.08V132.976H429.012V131.715ZM415.711 144.954H281.779V146.215H415.711V144.954ZM493.565 231.633H469.219V253.053H493.565V231.633ZM493.565 194.558H469.219V215.638H493.565V194.558Z" fill="white"/>
<path d="M462.257 109.153H440.426V184.365H462.257V109.153Z" fill="#BE73F4"/>
<path d="M476.844 302.507H357.002V215.822C357.015 195.762 364.196 176.366 377.25 161.134L423.641 106.994L476.844 170.042V302.507Z" fill="#766899"/>
<path d="M437.611 237.317H413.266V258.738H437.611V237.317ZM437.611 200.241H413.266V221.322H437.611V200.241ZM321.322 231.633H296.977V253.053H321.322V231.633ZM321.322 194.558H296.977V215.638H321.322V194.558Z" fill="#A237EE"/>
<path d="M287.652 67.8911H261.16V159.179H287.652V67.8911Z" fill="#A237EE" fill-opacity="0.7"/>
<path d="M305.291 302.507H33.6201V143.774L32.4121 143L32.6971 142.723L82.3181 94.6108C100.858 76.5708 125.701 66.3858 151.627 66.1958L240.86 65.3848L240.956 65.4988L305.475 141.903L305.29 143.991L305.291 302.508V302.507Z" fill="#A89EC7"/>
<path d="M305.291 302.506H159.967V185.952C159.973 169.001 166.043 152.607 177.089 139.707L240.782 65.375L305.291 141.818V302.506Z" fill="#44336B" fill-opacity="0.5"/>
<path d="M257.321 223.45H233.821V244.127H257.321V223.45ZM257.321 187.515H233.821V208.191H257.321V187.515ZM116.596 216.551H87.0469V242.55H116.596V216.551ZM116.596 171.55H87.0469V197.136H116.596V171.55Z" fill="#A237EE"/>
<path d="M522.643 301.529H3.30859V302.79H522.643V301.529Z" fill="#666276"/>
<path d="M142.5 283C151.613 283 159 270.912 159 256C159 241.088 151.613 229 142.5 229C133.387 229 126 241.088 126 256C126 270.912 133.387 283 142.5 283Z" fill="#A237EE" fill-opacity="0.75"/>
<path d="M144.728 302.433C138.096 270.818 144.662 239.314 144.728 239L146.019 239.173C145.952 239.486 139.424 270.823 146.019 302.262L144.728 302.433Z" fill="#666276"/>
<path d="M157.776 251.716L142.801 258.08L143.418 258.997L158.393 252.633L157.776 251.716ZM127.617 254.904L127 255.82L141.972 262.188L142.59 261.271L127.617 254.904Z" fill="#666276"/>
<path d="M40.5131 263.909C57.2981 263.909 70.9051 236.271 70.9051 202.179C70.9051 168.087 57.2981 140.449 40.5131 140.449C23.7281 140.449 10.1211 168.087 10.1211 202.179C10.1211 236.271 23.7281 263.909 40.5131 263.909Z" fill="#A237EE"/>
<path d="M43.9008 303.125C31.7448 230.522 43.7778 158.183 43.9008 157.461L45.1108 157.665C44.9878 158.386 32.9898 230.53 45.1108 302.925L43.9008 303.125Z" fill="#666276"/>
<path d="M67.5495 189.418L40.0655 204.052L40.6445 205.13L68.1285 190.496L67.5495 189.418ZM11.6405 196.752L11.0605 197.83L38.5405 212.471L39.1195 211.394L11.6405 196.752Z" fill="#666276"/>
<path d="M422.463 77.9322L429.125 72.6272C423.95 72.0602 421.823 74.8682 420.955 77.0922C416.912 75.4212 412.51 77.6112 412.51 77.6112L425.839 82.4282C425.166 80.6385 423.995 79.0783 422.465 77.9312L422.463 77.9322ZM302.07 37.0792L308.732 31.7742C303.557 31.2072 301.43 34.0152 300.562 36.2392C296.519 34.5682 292.117 36.7582 292.117 36.7582L305.446 41.5752C304.773 39.7872 303.602 38.2282 302.07 37.0792Z" fill="#A237EE"/>
<path d="M469.753 46.9561L476.415 41.6521C471.239 41.0851 469.112 43.8931 468.245 46.1171C464.201 44.4461 459.799 46.6361 459.799 46.6361L473.129 51.4531C472.455 49.6629 471.284 48.1023 469.754 46.9551L469.753 46.9561Z" fill="#A237EE"/>
<path d="M31.585 131.901L38 127.067C33.0159 126.551 30.9677 129.11 30.1329 131.137C26.2388 129.614 22 131.61 22 131.61L34.8358 136C34.1872 134.368 33.0597 132.946 31.5859 131.901L31.585 131.901Z" fill="#A237EE"/>
<path d="M235.585 43.9015L242 39.0674C237.016 38.5507 234.968 41.1099 234.133 43.1368C230.239 41.6139 226 43.6098 226 43.6098L238.836 48C238.187 46.3684 237.06 44.9461 235.586 43.9006L235.585 43.9015Z" fill="#A237EE"/>
<path d="M376.585 47.9015L383 43.0674C378.016 42.5507 375.968 45.1099 375.133 47.1368C371.239 45.6139 367 47.6098 367 47.6098L379.836 52C379.187 50.3684 378.06 48.9461 376.586 47.9006L376.585 47.9015Z" fill="#A237EE"/>
<path d="M186.548 293.215C184.777 293.215 183.037 293.68 181.503 294.563C179.943 293.161 178.012 292.24 175.941 291.911C173.868 291.582 171.745 291.859 169.826 292.708C167.909 293.556 166.28 294.941 165.137 296.694C163.994 298.447 163.387 300.491 163.389 302.581H196.644C196.461 300.036 195.318 297.655 193.447 295.921C191.571 294.182 189.107 293.216 186.549 293.215H186.548ZM476.136 293.215C474.365 293.215 472.625 293.68 471.091 294.563C469.531 293.161 467.6 292.24 465.529 291.911C463.456 291.582 461.333 291.859 459.415 292.708C457.498 293.555 455.869 294.94 454.725 296.694C453.583 298.446 452.975 300.491 452.978 302.581H486.232C486.049 300.036 484.907 297.655 483.035 295.92C481.162 294.182 478.697 293.216 476.136 293.215ZM274.315 285.988H227.077V287.505H234.444V301.915H235.967V287.505H264.661V301.915H266.185V287.505H274.314L274.315 285.988ZM274.407 281.45H227.17V282.967H274.407V281.45ZM274.408 277.658H227.17V279.175H274.408V277.658Z" fill="#666276"/>
<path d="M499.918 279.33C510.103 279.33 518.36 262.56 518.36 241.873C518.36 221.186 510.103 204.417 499.918 204.417C489.733 204.417 481.477 221.187 481.477 241.873C481.477 262.559 489.733 279.33 499.918 279.33Z" fill="#A237EE" fill-opacity="0.75"/>
<path d="M497.864 303.125C505.24 259.071 497.938 215.179 497.864 214.737L497.129 214.863C497.203 215.3 504.484 259.076 497.129 303.004L497.864 303.125Z" fill="#666276"/>
<path d="M483.512 234.124L483.16 234.778L499.84 243.664L500.192 243.01L483.512 234.124ZM517.446 238.578L500.765 247.464L501.117 248.118L517.798 239.233L517.446 238.578ZM447.283 285.988H400.045V287.505H407.412V301.915H408.936V287.505H437.63V301.915H439.154V287.505H447.282L447.283 285.988ZM447.376 281.45H400.138V282.967H447.376V281.45ZM447.376 277.658H400.138V279.175H447.376V277.658Z" fill="#666276"/>
<path d="M257.568 116.019L251.889 102.902L240.488 103.105L233.572 116.181L233.711 116.356H233.661V143.556H257.553V116.356L257.568 116.019ZM435.133 148.85L430.543 139.263L421.33 139.411L415.741 148.969L415.854 149.096H415.814V168.978H435.121V149.096L435.133 148.85Z" fill="#F5F4F8"/>
<path d="M213.412 97.1741H79.4797V98.4351H213.412V97.1741ZM200.112 110.413H66.1797V111.674H200.113V110.413H200.112ZM462.258 112.803H440.427V114.064H462.258V112.803ZM462.258 126.042H440.427V127.303H462.258V126.042ZM287.654 72.4551H261.162V73.7161H287.654V72.4551ZM287.654 85.6941H261.162V86.9551H287.654V85.6941Z" fill="white"/>
</svg>

<svg xmlns="http://www.w3.org/2000/svg" width="526" height="326" fill="none" xmlns:v="https://vecta.io/nano"><path d="M476.843 302.508h-223.94V171.7l-1.029-.659 36.35-35.243c18.374-17.877 42.993-27.969 68.685-28.158l66.823-.608.096.114 53.171 62.967-.157 1.743.001 130.652z" fill="#f5f4f8"/><path d="M429.013 131.715H295.081v1.261h133.932v-1.261zm-13.301 13.239H281.78v1.261h133.932v-1.261zm77.854 86.679H469.22v21.42h24.346v-21.42zm0-37.075H469.22v21.08h24.346v-21.08z" fill="#fff"/><path d="M462.257 109.153h-21.831v75.212h21.831v-75.212z" fill="#efecf3"/><path d="M476.844 302.507H357.002v-86.685a84.12 84.12 0 0 1 20.248-54.688l46.391-54.14 53.203 63.048v132.465z" fill="#d5d2dc" fill-opacity=".5"/><path d="M437.611 237.317h-24.345v21.421h24.345v-21.421zm0-37.076h-24.345v21.081h24.345v-21.081zm-116.289 31.392h-24.345v21.42h24.345v-21.42zm0-37.075h-24.345v21.08h24.345v-21.08z" fill="#fff"/><path d="M287.653 67.891h-26.492v91.288h26.492V67.891z" fill="#efecf3"/><path d="M305.291 302.507H33.62V143.774L32.412 143l.285-.277 49.621-48.112c18.54-18.04 43.383-28.225 69.309-28.415l89.233-.811.096.114 64.519 76.404-.185 2.088.001 158.517z" fill="#f5f4f8"/><path d="M305.291 302.506H159.967V185.952c.006-16.951 6.076-33.345 17.122-46.245l63.693-74.332 64.509 76.443v160.688z" fill="#d5d2dc" fill-opacity=".5"/><path d="M257.321 223.45h-23.5v20.677h23.5V223.45zm0-35.935h-23.5v20.676h23.5v-20.676zm-140.725 29.036H87.047v25.999h29.549v-25.999zm0-45.001H87.047v25.586h29.549V171.55z" fill="#fff"/><path d="M522.643 301.529H3.309v1.261h519.334v-1.261z" fill="#666276"/><path d="M91.509 275.056c11.631 0 21.06-19.15 21.06-42.774s-9.429-42.774-21.06-42.774-21.06 19.15-21.06 42.774 9.429 42.774 21.06 42.774z" fill="#d5d2dc"/><g fill="#666276"><path d="M93.456 302.297c-8.435-50.372-.085-100.568 0-101.068l1.641.276c-.085.498-8.387 50.428 0 100.52l-1.641.272z"/><path d="M110.048 223.083l-19.044 10.14.785 1.461 19.044-10.14-.785-1.461zm-38.354 5.079l-.785 1.461 19.041 10.145.785-1.46-19.041-10.146z"/></g><path d="M40.514 263.909c16.785 0 30.392-27.638 30.392-61.73s-13.607-61.73-30.392-61.73-30.392 27.638-30.392 61.73 13.607 61.73 30.392 61.73z" fill="#fd5631"/><g fill="#666276"><path d="M43.9 303.125c-12.156-72.603-.123-144.942 0-145.664l1.21.204c-.123.721-12.121 72.865 0 145.26l-1.21.2z"/><path d="M67.549 189.418l-27.484 14.634.579 1.078 27.484-14.634-.579-1.078zm-55.909 7.334l-.58 1.078 27.48 14.641.579-1.077-27.479-14.642z"/></g><path d="M422.463 77.932l6.662-5.305c-5.175-.567-7.302 2.241-8.17 4.465-4.043-1.671-8.445.519-8.445.519l13.329 4.817a10.04 10.04 0 0 0-3.374-4.497h-.002zM302.07 37.079l6.662-5.305c-5.175-.567-7.302 2.241-8.17 4.465-4.043-1.671-8.445.519-8.445.519l13.329 4.817c-.673-1.788-1.844-3.348-3.376-4.497z" fill="#454056"/><path d="M469.752 46.956l6.662-5.304c-5.176-.567-7.303 2.241-8.17 4.465-4.044-1.671-8.446.519-8.446.519l13.33 4.817a10.04 10.04 0 0 0-3.375-4.498l-.001.001z" fill="#fd5631"/><path d="M186.547 293.215a10.11 10.11 0 0 0-5.045 1.348 10.87 10.87 0 0 0-5.562-2.652 10.89 10.89 0 0 0-6.115.797c-1.917.848-3.546 2.233-4.689 3.986s-1.75 3.797-1.748 5.887h33.255a10.06 10.06 0 0 0-3.197-6.66 10.15 10.15 0 0 0-6.898-2.706h-.001zm289.588 0a10.11 10.11 0 0 0-5.045 1.348 10.87 10.87 0 0 0-5.562-2.652 10.89 10.89 0 0 0-6.114.797 10.82 10.82 0 0 0-4.69 3.986c-1.142 1.752-1.75 3.797-1.747 5.887h33.254a10.06 10.06 0 0 0-3.197-6.661c-1.873-1.738-4.338-2.704-6.899-2.705zm-201.821-7.227h-47.238v1.517h7.367v14.41h1.523v-14.41h28.694v14.41h1.524v-14.41h8.129l.001-1.517zm.092-4.538h-47.237v1.517h47.237v-1.517zm.001-3.792h-47.238v1.517h47.238v-1.517z" fill="#666276"/><path d="M499.917 279.33c10.185 0 18.442-16.77 18.442-37.457s-8.257-37.456-18.442-37.456-18.441 16.77-18.441 37.456 8.256 37.457 18.441 37.457z" fill="#d5d2dc"/><g fill="#666276"><path d="M497.863 303.125c7.376-44.054.074-87.946 0-88.388l-.735.126c.074.437 7.355 44.213 0 88.141l.735.121z"/><path d="M483.511 234.124l-.352.654 16.68 8.886.352-.654-16.68-8.886zm33.934 4.454l-16.681 8.886.352.654 16.681-8.885-.352-.655zm-70.163 47.41h-47.238v1.517h7.367v14.41h1.524v-14.41h28.694v14.41h1.524v-14.41h8.128l.001-1.517zm.093-4.538h-47.238v1.517h47.238v-1.517zm0-3.792h-47.238v1.517h47.238v-1.517z"/></g><path d="M257.569 116.019l-5.679-13.117-11.401.203-6.916 13.076.139.175h-.05v27.2h23.892v-27.2l.015-.337zm177.565 32.831l-4.59-9.587-9.213.148-5.589 9.558.113.127h-.04v19.882h19.307v-19.882l.012-.246z" fill="#f5f4f8"/><path d="M213.411 97.174H79.479v1.261h133.932v-1.261zm-13.3 13.239H66.179v1.261h133.933v-1.261zm262.146 2.39h-21.831v1.261h21.831v-1.261zm0 13.239h-21.831v1.261h21.831v-1.261zM287.653 72.455h-26.492v1.261h26.492v-1.261zm0 13.239h-26.492v1.261h26.492v-1.261z" fill="#fff"/></svg>
